places/16/mail-folder-sent.svg

<?xml version="1.0" encoding="UTF-8"?>
<svg id="a" width="16" height="16" version="1.1" xmlns="http://www.w3.org/2000/svg" xmlns:cc="http://creativecommons.org/ns#" xmlns:dc="http://purl.org/dc/elements/1.1/" xmlns:rdf="http://www.w3.org/1999/02/22-rdf-syntax-ns#">
	<metadata id="d">
		<rdf:RDF>
			<cc:Work rdf:about="">
				<dc:format>image/svg+xml</dc:format>
				<dc:type rdf:resource="http://purl.org/dc/dcmitype/StillImage"/>
				<dc:title/>
			</cc:Work>
		</rdf:RDF>
	</metadata>
	<defs>
		<style id="current-color-scheme" type="text/css">.ColorScheme-Text {color:#090d11;}.ColorScheme-Background{color:#ffffff;}</style>
	</defs>
	<path id="b" d="m14.281 0.92773-6.2812 6.2813-2.5312-2.5312-0.73828 0.73828 3.2695 3.2695 7.0195-7.0195-0.73828-0.73828zm-13.281 6.0723v7h1 12 1v-7h-2v5h-10v-5h-2z" style="fill-opacity:.75;fill:currentColor" class="ColorScheme-Text"/>
	<path id="c" d="m14.281-0.47852-0.71875 0.6875-5.5625 5.5625-1.8125-1.8125-0.71875-0.6875-0.71875 0.6875 0.71875 0.71875 2.5312 2.5312 6.2812-6.2813 0.71875-0.71875-0.71875-0.6875zm-14.281 6.4785v1 7 1h1 1 12 1 1v-1-7-1h-1-2-1v1 4h-8v-4-1h-1-2-1zm1 1h2v5h10v-5h2v7h-1-12-1v-7z" style="fill-opacity:.5;fill:currentColor" class="ColorScheme-Background"/>
</svg>

<?xml version="1.0" encoding="UTF-8" standalone="no"?>
<!-- Created with Inkscape (http://www.inkscape.org/) -->

<svg
   xmlns:dc="http://purl.org/dc/elements/1.1/"
   xmlns:cc="http://creativecommons.org/ns#"
   xmlns:rdf="http://www.w3.org/1999/02/22-rdf-syntax-ns#"
   xmlns:svg="http://www.w3.org/2000/svg"
   xmlns="http://www.w3.org/2000/svg"
   xmlns:sodipodi="http://sodipodi.sourceforge.net/DTD/sodipodi-0.dtd"
   xmlns:inkscape="http://www.inkscape.org/namespaces/inkscape"
   id="svg13094"
   height="16"
   width="16"
   version="1.1"
   inkscape:version="0.48.3.1 r9886"
   sodipodi:docname="mail-folder-sent.svg">
  <defs
     id="defs3009" />
  <sodipodi:namedview
     pagecolor="#ffffff"
     bordercolor="#666666"
     borderopacity="1"
     objecttolerance="10"
     gridtolerance="10"
     guidetolerance="10"
     inkscape:pageopacity="0"
     inkscape:pageshadow="2"
     inkscape:window-width="1920"
     inkscape:window-height="1033"
     id="namedview3007"
     showgrid="true"
     inkscape:zoom="29.5"
     inkscape:cx="14.02901"
     inkscape:cy="9.1218956"
     inkscape:window-x="-10"
     inkscape:window-y="25"
     inkscape:window-maximized="1"
     inkscape:current-layer="svg13094"
     inkscape:snap-bbox="true"
     inkscape:bbox-paths="true"
     inkscape:bbox-nodes="true"
     inkscape:snap-bbox-edge-midpoints="true"
     inkscape:snap-bbox-midpoints="true"
     inkscape:object-paths="true"
     inkscape:snap-intersection-paths="true"
     inkscape:object-nodes="true"
     inkscape:snap-smooth-nodes="true"
     inkscape:snap-midpoints="true"
     inkscape:snap-object-midpoints="true"
     inkscape:snap-center="true">
    <inkscape:grid
       type="xygrid"
       id="grid2982" />
  </sodipodi:namedview>
  <metadata
     id="metadata13099">
    <rdf:RDF>
      <cc:Work
         rdf:about="">
        <dc:format>image/svg+xml</dc:format>
        <dc:type
           rdf:resource="http://purl.org/dc/dcmitype/StillImage" />
        <dc:title />
      </cc:Work>
    </rdf:RDF>
  </metadata>
  <path
     sodipodi:nodetypes="ccccccccccc"
     inkscape:connector-curvature="0"
     style="color:#000000;fill:#27303a;fill-opacity:0.753280819999999968;fill-rule:nonzero;stroke:none;stroke-width:4;marker:none;visibility:visible;display:inline;overflow:visible;enable-background:accumulate"
     d="m 1,7 0,7 1,0 12,0 1,0 0,-7 -2,0 0,5 -10,0 0,-5 z"
     id="path2993" />
  <path
     style="font-size:medium;font-style:normal;font-variant:normal;font-weight:normal;font-stretch:normal;text-indent:0;text-align:start;text-decoration:none;line-height:normal;letter-spacing:normal;word-spacing:normal;text-transform:none;direction:ltr;block-progression:tb;writing-mode:lr-tb;text-anchor:start;baseline-shift:baseline;color:#000000;fill:#f1f3f5;fill-opacity:0.90288714000000003;fill-rule:nonzero;stroke:none;stroke-width:2;marker:none;visibility:visible;display:inline;overflow:visible;enable-background:accumulate;font-family:Sans;-inkscape-font-specification:Sans"
     d="M 0 6 L 0 7 L 0 14 L 0 15 L 1 15 L 2 15 L 14 15 L 15 15 L 16 15 L 16 14 L 16 7 L 16 6 L 15 6 L 13 6 L 12 6 L 12 7 L 12 11 L 4 11 L 4 7 L 4 6 L 3 6 L 1 6 L 0 6 z M 1 7 L 3 7 L 3 12 L 13 12 L 13 7 L 15 7 L 15 14 L 14 14 L 2 14 L 1 14 L 1 7 z "
     id="path3028" />
  <path
     style="font-size:medium;font-style:normal;font-variant:normal;font-weight:normal;font-stretch:normal;text-indent:0;text-align:start;text-decoration:none;line-height:normal;letter-spacing:normal;word-spacing:normal;text-transform:none;direction:ltr;block-progression:tb;writing-mode:lr-tb;text-anchor:start;baseline-shift:baseline;color:#000000;fill:#27303a;fill-opacity:0.753280819999999968;stroke:none;stroke-width:2;marker:none;visibility:visible;display:inline;overflow:visible;enable-background:accumulate;font-family:Sans;-inkscape-font-specification:Sans"
     d="M 5.46875,3.59375 4.03125,5.03125 8,9 15.71875,1.28125 14.28125,-0.15625 8,6.125 z"
     id="path2984"
     inkscape:connector-curvature="0"
     sodipodi:nodetypes="ccccccc" />
  <path
     inkscape:connector-curvature="0"
     style="font-size:medium;font-style:normal;font-variant:normal;font-weight:normal;font-stretch:normal;text-indent:0;text-align:start;text-decoration:none;line-height:normal;letter-spacing:normal;word-spacing:normal;text-transform:none;direction:ltr;block-progression:tb;writing-mode:lr-tb;text-anchor:start;baseline-shift:baseline;color:#000000;fill:#f1f3f5;fill-opacity:0.90288714000000003;fill-rule:nonzero;stroke:none;stroke-width:2;marker:none;visibility:visible;display:inline;overflow:visible;enable-background:accumulate;font-family:Sans;-inkscape-font-specification:Sans"
     d="M 14.28125,-1.5625 13.5625,-0.875 8,4.6875 6.1875,2.875 5.46875,2.1875 4.75,2.875 5.46875,3.59375 8,6.125 14.28125,-0.15625 15,-0.875 z"
     id="path3855"
     sodipodi:nodetypes="ccccccccccc" />
</svg>
